X:1
T:[ID 2-4]
T:[ID 2-4]
T:Bezeichnung standardisiert: Menuet [mit Trio] Menuet Con Trio
T:Urheber unbekannt Erstbeleg: 1767 (Datum in der schriftlichen Quelle) Datum in der hier transkribierten schriftlichen Quelle: 1776 - 1791
C:Urheber unbekannt
C:Erstbeleg: 1767 (Datum in der schriftlichen Quelle)
C:Datum in der hier transkribierten schriftlichen Quelle: 1776 - 1791
L:1/8
M:3/4
K:G
V:1 treble 
V:1
 d4 g2 | fe d4 |{AB} c2 B2 A2 |{c} BAGF"^[sic]" | G4 | d4 g2 | fd e4 | (3gfe f2 e2 | d6 :: %9
 d2 B,2 d2 | c2 A,2 c2 | BdcBAG | FGAF D2 | dBGBdB | cAFA"^[sic]"BcA | (3Bcd BGAF | G6 :| %17
[M:3/4]"^Trio" !fermata!G4 (3BAG | d2 d2 d2 | G4 (3BAG | g2 g2 g2 | G4 (3BAG | e2 e2 d2 | c2 edcB | %24
 A6 :: AFDFAc | BGDGAB | c2 edcB | AGFE D2 | d4 e2 | dgfedc | (3BAG TA4 | G6 :| %33

